flaticon/security/security-camera.svg

<svg xmlns="http://www.w3.org/2000/svg" width="32" height="32" viewBox="0 0 24 24">
    <path d="M 8.199219 10.800781 C 10.847656 10.800781 13 8.648438 13 6 C 13 3.351562 10.847656 1.199219 8.199219 1.199219 C 5.554688 1.199219 3.398438 3.351562 3.398438 6 C 3.398438 8.648438 5.554688 10.800781 8.199219 10.800781 Z M 8.199219 2 C 10.40625 2 12.199219 3.792969 12.199219 6 C 12.199219 8.207031 10.40625 10 8.199219 10 C 5.996094 10 4.199219 8.207031 4.199219 6 C 4.199219 3.792969 5.996094 2 8.199219 2 Z M 8.199219 2"/>
    <path d="M8.199219 9.199219C9.964844 9.199219 11.398438 7.765625 11.398438 6 11.398438 4.234375 9.964844 2.800781 8.199219 2.800781 6.4375 2.800781 5 4.234375 5 6 5 7.765625 6.4375 9.199219 8.199219 9.199219zM8.199219 3.601562C9.523438 3.601562 10.601562 4.675781 10.601562 6 10.601562 7.324219 9.523438 8.398438 8.199219 8.398438 6.875 8.398438 5.800781 7.324219 5.800781 6 5.800781 4.675781 6.875 3.601562 8.199219 3.601562zM12.601562 1.601562C12.601562 1.820312 12.421875 2 12.199219 2 11.980469 2 11.800781 1.820312 11.800781 1.601562 11.800781 1.378906 11.980469 1.199219 12.199219 1.199219 12.421875 1.199219 12.601562 1.378906 12.601562 1.601562zM12.601562 1.601562"/>
    <path d="M 7 6 C 7 5.339844 7.539062 4.800781 8.199219 4.800781 C 8.421875 4.800781 8.601562 4.621094 8.601562 4.398438 C 8.601562 4.179688 8.421875 4 8.199219 4 C 7.097656 4 6.199219 4.898438 6.199219 6 C 6.199219 6.222656 6.378906 6.398438 6.601562 6.398438 C 6.820312 6.398438 7 6.222656 7 6 Z M 7 6"/>
    <path d="M 21.800781 17.0625 L 15.097656 19.074219 C 14.546875 18.417969 13.722656 18 12.800781 18 C 12.667969 18 12.535156 18.011719 12.40625 18.027344 L 9.863281 15.121094 C 10.21875 14.839844 10.46875 14.457031 10.558594 14 L 12.601562 14 C 13.511719 14 14.199219 13.265625 14.199219 12.289062 L 14.199219 1.710938 C 14.199219 0.734375 13.511719 0 12.601562 0 L 3.910156 0 C 2.96875 0 2.199219 0.765625 2.199219 1.710938 L 2.199219 12.289062 C 2.199219 13.195312 2.910156 13.929688 3.800781 13.988281 L 3.800781 14 L 6.242188 14 C 6.316406 14.382812 6.503906 14.714844 6.769531 14.976562 L 10.027344 19.859375 C 9.882812 20.210938 9.800781 20.597656 9.800781 21 C 9.800781 22.65625 11.144531 24 12.800781 24 C 14.144531 24 15.285156 23.109375 15.664062 21.886719 L 21.800781 20.308594 Z M 3 12.289062 L 3 1.710938 C 3 1.207031 3.410156 0.800781 3.910156 0.800781 L 12.601562 0.800781 C 13.148438 0.800781 13.398438 1.273438 13.398438 1.710938 L 13.398438 12.289062 C 13.398438 12.726562 13.148438 13.199219 12.601562 13.199219 L 12.601562 12.769531 C 12.601562 11.902344 11.894531 11.199219 11.03125 11.199219 L 5.371094 11.199219 C 4.503906 11.199219 3.800781 11.90625 3.800781 12.769531 L 3.800781 13.1875 C 3.351562 13.132812 3 12.753906 3 12.289062 Z M 4.601562 12.769531 C 4.601562 12.34375 4.945312 12 5.371094 12 L 11.03125 12 C 11.453125 12 11.800781 12.34375 11.800781 12.769531 L 11.800781 13.199219 L 4.601562 13.199219 Z M 9.738281 14 C 9.550781 14.550781 8.972656 14.800781 8.398438 14.800781 C 7.828125 14.800781 7.25 14.550781 7.0625 14 Z M 8.148438 15.601562 L 9.21875 15.601562 L 11.558594 18.273438 C 11.550781 18.273438 11.542969 18.277344 11.539062 18.28125 C 11.449219 18.324219 11.359375 18.371094 11.277344 18.421875 C 11.261719 18.429688 11.246094 18.4375 11.230469 18.449219 C 11.148438 18.496094 11.074219 18.550781 11 18.605469 C 10.984375 18.617188 10.96875 18.628906 10.957031 18.640625 C 10.875 18.703125 10.796875 18.769531 10.726562 18.839844 C 10.71875 18.84375 10.714844 18.847656 10.710938 18.851562 C 10.628906 18.929688 10.550781 19.011719 10.480469 19.101562 Z M 12.800781 23.199219 C 11.585938 23.199219 10.601562 22.214844 10.601562 21 C 10.601562 20.640625 10.6875 20.300781 10.84375 20 C 11.121094 19.453125 11.621094 19.046875 12.210938 18.882812 C 12.398438 18.828125 12.597656 18.800781 12.800781 18.800781 C 13.558594 18.800781 14.226562 19.183594 14.621094 19.769531 C 14.671875 19.84375 14.71875 19.925781 14.761719 20.007812 C 14.769531 20.027344 14.78125 20.050781 14.792969 20.070312 C 14.832031 20.152344 14.863281 20.238281 14.894531 20.328125 C 14.898438 20.34375 14.90625 20.363281 14.910156 20.382812 C 14.933594 20.460938 14.953125 20.542969 14.964844 20.628906 L 14.976562 20.699219 C 14.988281 20.796875 15 20.898438 15 21 C 15 21.035156 14.996094 21.074219 14.992188 21.109375 C 14.992188 21.117188 14.992188 21.121094 14.992188 21.128906 C 14.984375 21.25 14.96875 21.367188 14.945312 21.472656 C 14.730469 22.460938 13.851562 23.199219 12.800781 23.199219 Z M 21 19.691406 L 15.800781 21.027344 C 15.800781 21.019531 15.800781 21.007812 15.800781 21 C 15.800781 20.925781 15.796875 20.847656 15.789062 20.765625 C 15.785156 20.710938 15.777344 20.65625 15.769531 20.601562 C 15.769531 20.59375 15.769531 20.59375 15.769531 20.585938 L 15.753906 20.492188 C 15.753906 20.488281 15.753906 20.484375 15.75 20.480469 C 15.742188 20.429688 15.734375 20.378906 15.722656 20.328125 C 15.703125 20.25 15.6875 20.179688 15.667969 20.125 L 15.667969 20.121094 C 15.664062 20.113281 15.664062 20.105469 15.660156 20.097656 L 15.652344 20.066406 C 15.644531 20.046875 15.632812 20.023438 15.625 20 C 15.597656 19.925781 15.570312 19.851562 15.539062 19.78125 C 15.539062 19.78125 15.539062 19.777344 15.535156 19.777344 L 21 18.136719 Z M 21 19.691406"/>
</svg>

<svg xmlns="http://www.w3.org/2000/svg" width="32" height="32" viewBox="0 0 24 24">
    <path d="M8.2 10.8c2.648 0 4.8-2.152 4.8-4.8 0-2.648-2.152-4.8-4.8-4.8A4.807 4.807 0 0 0 3.397 6c0 2.648 2.157 4.8 4.801 4.8zm0-8.8c2.206 0 4 1.793 4 4s-1.794 4-4 4c-2.204 0-4-1.793-4-4s1.796-4 4-4zm0 0"/>
    <path d="M8.2 9.2A3.2 3.2 0 0 0 11.397 6 3.2 3.2 0 0 0 8.2 2.8 3.203 3.203 0 0 0 5 6c0 1.766 1.438 3.2 3.2 3.2zm0-5.598A2.402 2.402 0 0 1 10.601 6a2.402 2.402 0 0 1-2.403 2.398 2.399 2.399 0 0 1 0-4.796zm0 0M12.602 1.602a.401.401 0 1 1-.802-.005.401.401 0 0 1 .802.005zm0 0"/>
    <path d="M7 6c0-.66.54-1.2 1.2-1.2a.401.401 0 0 0 0-.8c-1.102 0-2 .898-2 2 0 .223.179.398.402.398A.398.398 0 0 0 7 6zm0 0"/>
    <path d="M21.8 17.063l-6.702 2.011a2.991 2.991 0 0 0-2.692-1.047l-2.543-2.906c.356-.281.606-.664.696-1.121h2.043c.91 0 1.597-.734 1.597-1.71V1.71C14.2.735 13.512 0 12.602 0H3.91C2.97 0 2.2.766 2.2 1.71v10.58c0 .905.71 1.64 1.6 1.698V14h2.442c.074.383.262.715.528.977l3.257 4.882A3 3 0 0 0 12.8 24c1.345.001 2.485-.89 2.864-2.112l6.137-1.578zM3 12.288V1.711c0-.504.41-.91.91-.91h8.692c.546 0 .796.472.796.91v10.578c0 .438-.25.91-.796.91v-.43c0-.867-.707-1.57-1.57-1.57h-5.66c-.868 0-1.571.707-1.571 1.57v.418A.908.908 0 0 1 3 12.29zm1.602.48c0-.425.343-.769.77-.769h5.66c.421 0 .769.344.769.77v.43H4.6zM9.738 14c-.187.55-.765.8-1.34.8-.57 0-1.148-.25-1.335-.8zm-1.59 1.602h1.07l2.34 2.671a2.783 2.783 0 0 0-.281.148l-.047.028a2.384 2.384 0 0 0-.23.156c-.016.012-.031.024-.043.036-.082.062-.16.129-.23.199a2.33 2.33 0 0 0-.246.262zm4.653 7.597a2.199 2.199 0 1 1 2.094-2.87c.003.015.011.034.015.054.024.078.043.16.055.246l.012.07c.011.098.023.2.023.301 0 .035-.004.074-.008.11v.019a2.195 2.195 0 0 1-2.191 2.07zM21 19.691l-5.2 1.336V21a2.476 2.476 0 0 0-.03-.398v-.016l-.016-.094c0-.004 0-.008-.004-.012a2.077 2.077 0 0 0-.027-.152c-.02-.078-.036-.148-.055-.203v-.004c-.004-.008-.004-.016-.008-.023l-.008-.032c-.007-.02-.02-.043-.027-.066a3.637 3.637 0 0 0-.086-.219s0-.004-.004-.004L21 18.137zm0 0"/>
</svg>
